X: 166
T:Galway Shawl
C:Trad.
M:3/4
L:1/8
K:G
"D7" G2 | G4 F2 | "G"E2 D4- | D6- | D4  EF | G4 A2 | B2 d4-|d6-|d4d2 |
w: In Or-an-mo-re *** In the Coun-ty Gal-way  ** One
d4 e2 |  B4 A2 |  G6 -| G4 GB | A4 G2 | "C" E6- | "E7" E6- | "Am"E4 G2 |
w: Pleas-ant e-ven-ing * In the month of May, ** I
"D7"G4 F2 | "G"E2 D4- | D6- | D4- EF | G4 A2 |  B2 d4- | d6- | d4 d2 |
w: spied a dam-sel, ** she was young and hand-some. * * Her
d4 e2 |  B4 A2 |G6- | G2 G2 B2 | "D"  A4 G2 | "G" G6- | "C"  G6 | "G"   z4 |]
w: beau-ty fa-ir-ly * took my breath a-way.
W:
W: Chorus:
W: She wore no jewels or costly diamonds,
W: No paint or powder, no none at all.
W: She wore a bonnet, with a ribbon on it,
W: and around her shoulder was a Galway shawl.
W:
W: As we kept walking, she kept on talking,
W: till her father's cottage came in to view.
W: She said, 'Come in Sir and meet my father,
W: and for to please him, play the Foggy Dew.'
W:
W: I played the 'Blackbird' and 'The Stack of Barley',
W: 'Rodney's Glory' and 'The Foggy Dew.'
W: She sang each note like an Irish linnet,
W: and the tears flowed in her eyes of blue.
W:
W: 'Twas early, early, in the morning,
W: I hit the road for old Donegal.
W: Said she, 'Goodbye Sir', as she cried,
W: and my heart remained with the Galway shawl.


